!!!COM:	L. van Beethoven
!!!OTL:	Op 59 No 2 2nd Movement - Score
**kern	**kern	**kern	**kern	**dynam
*part4	*part3	*part2	*part1	*part1
*staff4	*staff3	*staff2	*staff1	*
*I"Cello	*I"Viola	*I"2nd Violin	*I"1st Violin	*
*clefF4	*clefC3	*clefG2	*clefG2	*
*k[f#c#g#d#]	*k[f#c#g#d#]	*k[f#c#g#d#]	*k[f#c#g#d#]	*
*E:	*E:	*E:	*E:	*
*M4/4	*M4/4	*M4/4	*M4/4	*
*met(c)	*met(c)	*met(c)	*met(c)	*
=1	=1	=1	=1	=1
!	!	!	!LO:TX:a:t=Si tratta questo pezzo eon molto di sentimento	!
!	!	!	!LO:TX:a:B:t=Molto Adagio	!
1r	1r	2r	(2e	.
.	.	(2B	2d#	.
=2	=2	=2	=2	=2
2r	(<2F#	2A	2f#	.
(2C#	2c#)	2G#)	2e)	.
=3	=3	=3	=3	=3
2Cn	(2F#	(2d#	(2a	.
4BB	4E	4e	4g#	.
4AA	4F#)	4c#X)	8.bL	.
.	.	.	16aJk)	.
=4	=4	=4	=4	=4
2.BB)	(4G#	(2e	(2g#	.
.	4A#X	.	.	.
.	4B)	4d#)	4f#)	.
4r	4r	[4dn	4r	.
=5	=5	=5	=5	=5
1r	2r	(2d]	(<2b	.
.	[2An	2c#)	2a	.
=6	=6	=6	=6	=6
!LO:TX:b:i:t=cresc.	!LO:TX:b:i:t=cresc.	!LO:TX:b:i:t=cresc.	!LO:TX:b:i:t=cresc.	!
(2BB	(2A]	2d#X	2f#	.
2BB#X	2G#)	2d#	2g#)	.
=7	=7	=7	=7	=7
2C#)	2E	2A#X	2e	.
2BBn	2D#	2An	4..f#X	.
.	.	.	16g#X	.
=8	=8	=8	=8	=8
4EE	(4E	(<4G#	4e	.
4r	4B	4b	4r	.
(4BB	4A	4a	4r	.
4AA	4F#	4f#	[8BL	.
.	.	.	16B'L]	.
.	.	.	16B'JJ	.
=9	=9	=9	=9	=9
2GG#)	2E)	2e)	4B	.
.	.	.	[8bL	.
.	.	.	16b'L]	.
.	.	.	16b'JJ	.
2FF#	2D#X	2d#	[8aL	.
.	.	.	16a'L]	.
.	.	.	16g#'JJ	.
.	.	.	[8f#L	.
.	.	.	16f#'L]	.
.	.	.	16e'JJ	.
=10	=10	=10	=10	=10
2AA	2F#	2f#	4d#	.
.	.	.	[8cc#L	.
.	.	.	16cc#'L]	.
.	.	.	16cc#'JJ	.
2GG#)	2E)	2e)	[8cc#L	.
.	.	.	16cc#'L]	.
.	.	.	16b'JJ	.
.	.	.	[8eeL	.
.	.	.	16ee'L]	.
.	.	.	16gg#'JJ	.
=11	=11	=11	=11	=11
!!linebreak:original
(2BB#X	(2A	(2a	[8gg#L	.
.	.	.	16gg#'L]	.
.	.	.	16ff#'JJ	.
.	.	.	[8eeL	.
.	.	.	16ee'L]	.
.	.	.	16dd#'JJ	.
2C#)	4G#	4g#	[8eeL	.
.	.	.	16ee'L]	.
.	.	.	16e'JJ	.
.	8.BL	8.bL	[8d#L	.
.	.	.	16d#'L]	.
.	16AJk)	16aJk)	16e'JJ	.
=12	=12	=12	=12	=12
2.BBn	(2G#	(2g#	[8eL	.
.	.	.	16e'L]	.
.	.	.	16f#'JJ	.
.	.	.	[8g#L	.
.	.	.	16g#'L]	.
.	.	.	16a#X'JJ	.
.	4F#)	4f#)	[8a#L	.
.	.	.	16a#'L]	.
.	.	.	16b'JJ	.
4r	4r	4r	[8bL	.
.	.	.	16b'L]	.
.	.	.	16b'JJ	.
=13	=13	=13	=13	=13
(2E#X	(2B	(<2b	[8bL	.
.	.	.	16b'L]	.
.	.	.	16b#X'JJ	.
.	.	.	[8b#L	.
.	.	.	16b#'L]	.
.	.	.	16cc#'JJ	.
2F#	2A	2a	[8cc#L	.
.	.	.	16cc#'L]	.
.	.	.	16dd#'JJ	.
.	.	.	[8eeL	.
.	.	.	16ee'L]	.
.	.	.	16ff#'JJ	.
=14	=14	=14	=14	=14
!LO:TX:b:i:t=cresc.	!LO:TX:b:i:t=cresc.	!LO:TX:b:i:t=cresc.	!LO:TX:b:i:t=cresc.	!
1BB#X)	2F#	2f#	[8gg#L	.
.	.	.	16gg#'L]	.
.	.	.	16gg#'JJ	.
.	.	.	[8aanL	.
.	.	.	16aa'L]	.
.	.	.	16gg#'JJ	.
.	2G#)	2g#)	[8gg#L	.
.	.	.	16gg#'L]	.
.	.	.	16ff#'JJ	.
.	.	.	[8eeL	.
.	.	.	16ee'L]	.
.	.	.	16dd#'JJ	.
=15	=15	=15	=15	=15
2C#	2E	2e	[8eeL	.
.	.	.	16ee'L]	f
.	.	.	16cc#'JJ	.
.	.	.	[8bnL	.
.	.	.	16b'L]	.
.	.	.	16a#X'JJ	.
2BB	4..F#	4..f#	[8anL	.
.	.	.	16a'L]	>
.	.	.	16f#'JJ	.
.	.	.	[8d#L	.
.	.	.	16d#'L]	.
.	16G#	16g#	16B'JJ	.
=16	=16	=16	=16	=16
!!linebreak:original
4EE	4E	4e	8e'L	.
.	.	.	16r	p
.	.	.	16g#'k	.
4r	4r	4r	8e'	.
.	.	.	16r	.
.	.	.	16g#'Jk	.
2r	2r	2r	8B'L	.
.	.	.	16r	.
.	.	.	16g#'k	.
.	.	.	8e'	.
.	.	.	16r	.
.	.	.	16g#'Jk	.
=17	=17	=17	=17	=17
!	!	!LO:TX:b:i:t=espress.	!	!
1r	1r	(2b	8B'L	.
!	!	!	!LO:TX:a:i:t=sempre staccato	!
.	.	.	16r	.
.	.	.	16a'k	.
.	.	.	8f#'	.
.	.	.	16r	.
.	.	.	16a'Jk	.
.	.	2dd#	8B'L	.
.	.	.	16r	.
.	.	.	16a'k	.
.	.	.	8f#'	.
.	.	.	16r	.
.	.	.	16a'Jk	.
=18	=18	=18	=18	=18
!LO:TX:a:i:t=espress.	!	!	!	!
1r	(2E	2.ee	8B'L	.
.	.	.	16r	.
.	.	.	16g#'k	.
.	.	.	8e'	.
.	.	.	16r	.
.	.	.	16g#'Jk	.
.	2G#)	.	8B'L	.
.	.	.	16r	.
.	.	.	16g#'k	.
.	.	8.dd#L	8e'	.
.	.	.	16r	.
.	.	16cc#Jk)	16g#'Jk	.
=19	=19	=19	=19	=19
!LO:TX:b:i:t=espress.	!	!	!	!
(<2BB	1B	(4b	8B'L	.
.	.	.	16r	.
.	.	.	16f#'k	.
.	.	8.ff#L	8d#'	.
.	.	.	16r	.
.	.	16dd#Jk	16f#'Jk	.
2D#)	.	4b	8B'L	.
.	.	.	16r	.
.	.	.	16a'k	.
.	.	8.cc#L	8f#'	.
.	.	.	16r	.
.	.	16aJk)	16a'Jk	.
=20	=20	=20	=20	=20
1E	(4B	1g#	8B'L	.
.	.	.	16r	.
.	.	.	16e'k	.
.	8.g#L	.	8B'	.
.	.	.	16r	.
.	16eJk	.	16e'Jk	.
.	4c#	.	8G#'L	.
.	.	.	16r	.
.	.	.	16ek	.
.	8.eL	.	8c#'	.
.	.	.	16r	.
.	16c#Jk)	.	16e'Jk	.
=21	=21	=21	=21	=21
(2BB#X	(2G#	8G#'L	(<2g#	.
.	.	16r	.	.
.	.	16f#'k	.	.
.	.	8d#'	.	.
.	.	16r	.	.
.	.	16f#'Jk	.	.
2GG#)	2F#)	8G#'L	2b#X)	.
.	.	16r	.	.
.	.	16d#'k	.	.
.	.	8B#X'	.	.
.	.	16r	.	.
.	.	16d#'Jk	.	.
=22	=22	=22	=22	=22
!!linebreak:original
!LO:TX:b:i:t=cresc.	!LO:TX:b:i:t=cresc.	!LO:TX:b:i:t=cresc.	!LO:TX:b:i:t=cresc.	!
(2C#	2E	8G#'L	(2.cc#	.
.	.	16r	.	.
.	.	16e'k	.	.
.	.	8c#'	.	.
.	.	16r	.	.
.	.	16e'Jk	.	.
2BBn)	2gn	8Gn'L	.	.
.	.	16r	.	.
.	.	16e'k	.	.
.	.	8c#'	8.dd#L	.
.	.	16r	.	.
.	.	16e'Jk	16eeJk)	.
=23	=23	=23	=23	=23
!	!	!	!LO:TX:a:t=ten.	!
4AA#X	4f#	4c# 4e	4cc# 4ee	.
8.AA#L	8.F#L	8.cc#L	8.ff#L	.
16AA#Jk	16F#Jk	16cc#Jk	16eeJk	.
8.BBL	8.F#L	8.bnL	8.dd#L	.
16C#k	16E#Xk	16g#k	16cc#k	.
8.C#	8.E#	8.g#	8.bn	.
16C#Jk	16E#Jk	16g#Jk	16cc#Jk	.
=24	=24	=24	=24	=24
1F#	4F#X	4f#X	(8.a#XL	.
.	.	.	16gg#k)	.
.	8.A#XL	8.c#L	8.ff#	.
.	16A#Jk	16c#Jk	16eeJk	.
.	8.BL	8.d#L	8.dd#L	.
.	16Bk	16d#k	16cc#k	.
.	8.c#	8.e#X	8.b	.
.	16c#Jk	16e#Jk	16cc#Jk	.
=25	=25	=25	=25	=25
!LO:TX:b:i:t=cresc.	!LO:TX:b:i:t=cresc.	!LO:TX:b:i:t=cresc.	!LO:TX:b:i:t=cresc.	!
(8.F#L	(4c#	(4f#	(4a#X	.
*clefG2	*	*	*	*
16ggnJk)	.	.	.	.
8.ff#L	4f#)	4a#X	4cc#	.
16eeJk	.	.	.	.
8.ddnL	(4f#	4b	4ddn	.
16cc#k	.	.	.	.
8.b	4g#)	4ddn)	4ee#X)	.
16cc#Jk	.	.	.	.
=26	=26	=26	=26	=26
!LO:TX:b:i:t=piu cresc.	!LO:TX:b:i:t=piu cresc.	!LO:TX:b:i:t=piu cresc.	!LO:TX:b:i:t=piu cresc.	!
4..a#X	4f#	4cc#	[1ff#	.
.	8.F#L	8.eenL	.	.
16b	16G#Jk	16dd#XJk	.	.
8.cc#L	8.A#XL	8.cc#L	.	.
16dd#Xk	16Bk	16bk	.	.
8.ee	8.c#	8.a#X	.	.
16cc#Jk	16A#XJk	16eeJk	.	.
=27	=27	=27	=27	=27
4..dd#	4..B	4dd#	8ff#L]	.
.	.	.	(16gg#L	p
.	.	.	16aa#XJJ	.
.	.	4r	16bbLL	.
.	.	.	16ccc#	.
.	.	.	16ddd#	.
16cc#	16F#	.	16eeenJJ	.
8..bL	8..D#L	2r	[2fff#)	.
32f#kk	32D#kk	.	.	.
8..b	8..D#	.	.	.
32cc#Jkk	32D#Jkk	.	.	.
=28	=28	=28	=28	=28
!!linebreak:original
(4..dd#	(4..B	1r	8fff#L]	.
.	.	.	(16ggg#L	.
.	.	.	16aaa#XJJ	.
.	.	.	16bbbLL	.
.	.	.	16aaa#	.
.	.	.	16ggg#X	.
16ee	16c#	.	16fff#JJ	.
2ff#)	2d#)	.	16bbbLL	.
.	.	.	16aaa#	.
.	.	.	16ggg#	.
.	.	.	16fff#JJ	.
.	.	.	16eeeLL	.
.	.	.	16ddd#	.
.	.	.	16ccc#	.
.	.	.	16bbJJ)	.
=29	=29	=29	=29	=29
(4.gg#	(4.e	1r	(16aa#XLL	.
.	.	.	16gg#	.
.	.	.	16ff#	.
.	.	.	16eeJJ	.
.	.	.	16dd#LL	.
.	.	.	16cc#	.
8g#)	8E)	.	16ee	.
.	.	.	[16gg#JJ	.
(4b	4F#	.	16gg#LL]	.
.	.	.	16b	.
.	.	.	16dd#	.
.	.	.	[16ff#JJ	.
4a#X)	4F#	.	16ff#LL])	.
.	.	.	(16cc#	.
.	.	.	16ff#	.
.	.	.	16eeJJ)	.
*clefF4	*	*	*	*
=30	=30	=30	=30	=30
4..BB	4..B	4..f#	4..dd#	.
16C#	16F#	16e	16cc#	.
8..D#L	8..F#L	8..d#L	8..bL	.
32Ekk	32F#kk	32c#kk	32g#kk	.
8..D#	8..F#	8..d#	8..b	.
32C#Jkk	32F#Jkk	32aJkk	32cc#Jkk	.
=31	=31	=31	=31	=31
(4..BB	1F#	(4..b	(4..dd#	.
16AA#X	.	16cc#	16ee	.
8..GG#L	.	2dd#)	2ff#)	.
32FF#kk	.	.	.	.
8..EE	.	.	.	.
32DD#Jkk)	.	.	.	.
=32	=32	=32	=32	=32
(8.CC#L	(8.EL	(4.ee	(4.gg#	.
16DD#k	16F#k	.	.	.
8EE	8G#	.	.	.
!	!	!LO:TX:b:i:t=cresc.	!	!
8EE#XJ)	8BJ)	8dn)	8g#)	.
!LO:TX:b:i:t=cresc.	!LO:TX:b:i:t=cresc.	!	!LO:TX:b:i:t=cresc.	!
4FF#	(4B	(4d#X	(4b	.
4F#	4d#X)	4B#X)	4a)	.
=33	=33	=33	=33	=33
(4F#'	4d#	(<4B#X'	(<4a'	.
4r	8.f#L	4r	4r	.
.	16F#Jk	.	.	.
!LO:TX:b:i:t=mancando	!	!	!LO:TX:b:i:t=mancando	!
4c#'	4F#	4e'	4g#'	.
!	!	!LO:TX:b:i:t=mancando	!	!
4r	8.f#L	4r	4r	.
.	16F#Jk	.	.	.
=34	=34	=34	=34	=34
4A#X'	4F#	4c#'	4gn'	.
4r	8.f#L	4r	4r	.
.	16F#Jk	.	.	.
4B')	4F#	4d#')	4f#')	.
4r	8.f#L	4r	4r	.
.	16F#Jk	.	.	.
=35	=35	=35	=35	=35
!!linebreak:original
*clefG2	*	*	*	*
(2aan	4F#	(2b#X	(2dd#	.
.	8.f#L	.	.	.
.	16F#Jk	.	.	.
!LO:TX:b:i:t=poco cresc.	!	!	!	!
12gg#L	4F#	[4cc#	[4ee	.
12ff#	.	.	.	.
12eeJ	.	.	.	.
12dd#L	8.f#L	12cc#L]	12eeL]	.
12cc#	.	12dd#	12ff#	.
12bJ)	.	12eeJ)	12gg#J)	.
.	16F#Jk	.	.	.
=36	=36	=36	=36	=36
!	!LO:TX:b:i:t=cresc.	!	!	!
4a#X	4F#	(4ee	(4gg#	.
!LO:TX:b:i:t=piu cresc.	!	!LO:TX:b:i:t=cresc.	!LO:TX:b:i:t=cresc.	!
(4ggn	8.f#L	4a#X	4cc#	.
.	16F#Jk	.	.	.
12ff#L	4F#	4bn	4dd#	.
12ee	.	.	.	.
12dd#J	.	.	.	.
12cc#L	8.f#L	4cc#)	4ee)	.
12b	.	.	.	.
12a#XJ)	.	.	.	.
.	16F#Jk	.	.	.
=37	=37	=37	=37	=37
(2b	(2d#	4b	(12dd#L	.
.	.	.	12ee	.
.	.	.	12ff#J	.
!	!	!LO:TX:a:i:t=sempre	!	!
.	.	4r	12gg#L	.
.	.	.	12aa#X	p
!	!	!	!LO:TX:b:i:t=e dolce	!
.	.	.	12bbJ	.
2f#	2A#X	4r	12aa#XL	.
.	.	.	12gg#	.
.	.	.	12ff#J	.
.	.	(8.f#L	12eeL	.
.	.	.	12dd#	.
.	.	.	12cc#J)	.
.	.	16eJk	.	.
*clefF4	*	*	*	*
=38	=38	=38	=38	=38
2G#	2B	4d#)	(12bL	.
.	.	.	12cc#	.
.	.	.	12dd#J	.
.	.	4r	12eeL	.
.	.	.	12ff#	.
.	.	.	12gg#J	.
2D#	2F#	4r	12ff#L	.
.	.	.	12ee	.
.	.	.	12dd#J	.
.	.	(8.BL	12cc#L	.
.	.	.	12b	.
.	.	.	12a#XJ)	.
.	.	16A#XJk)	.	.
=39	=39	=39	=39	=39
2E	2G#	(4..G#	(>12g#L	.
.	.	.	12a#X	.
.	.	.	12bJ	.
.	.	.	12cc#L	.
.	.	.	12dd#	.
.	.	.	12eeJ	.
.	.	16A#X	.	.
2BB)	2D#)	[4B	12dd#L	.
.	.	.	12cc#	.
.	.	.	12bJ	.
.	.	12BL]	12a#L	.
.	.	12c#	12g#	.
.	.	12d#J)	12f#J)	.
=40	=40	=40	=40	=40
2C#	(<4A#X	(12eL	2.e	.
.	.	12d#	.	.
.	.	[12c#J)	.	.
.	12BL	4c#_	.	.
.	12A#X	.	.	.
.	12G#J	.	.	.
(>12F#L	4F#	4c#]	.	.
12E	.	.	.	.
12D#J	.	.	.	.
12C#L	[4c#)	[4e	[4ee	.
12BB	.	.	.	.
12AA#XJ)	.	.	.	.
=41	=41	=41	=41	=41
!!linebreak:original
(12GG#L	4c#]	4e]	4ee]	.
12FF#	.	.	.	.
12EEJ	.	.	.	.
!LO:TX:b:i:t=cresc.	!	!	!	!
12DD#L	(4g#	[4cc# [4ee	[4eee	.
12CC#	.	.	.	.
12BBB#XJ	.	.	.	.
!	!LO:TX:b:i:t=cresc.	!LO:TX:b:i:t=cresc.	!LO:TX:b:i:t=cresc.	!
12CC#L	4a#X	4cc#] 4ee]	4eee]	.
12DD#	.	.	.	.
12EEJ	.	.	.	.
12FF#L	4cc#	([4f# 4ee	(4eee	.
12GG#	.	.	.	.
12AA#XJ	.	.	.	.
=42	=42	=42	=42	=42
12BBL	4b	4f#]) 4dd#	4ddd#)	.
12C#	.	.	.	.
12D#J	.	.	.	.
12EL	4g#)	4e) 4cc#	4ccc#	.
12F#	.	.	.	.
12G#J	.	.	.	.
[2F#)	(2d# 2f#	(12bL	[2bb)	.
.	.	12cc#	.	.
.	.	12dd#J	.	.
.	.	12eeL	.	.
.	.	12ff#	.	.
.	.	12gg#J)	.	.
=43	=43	=43	=43	=43
1F#_	[1d#)	[1b [1ff#	(12bbL]	.
.	.	.	12ccc#	.
.	.	.	12ddd#J	.
.	.	.	12eeeL	.
.	.	.	12fff#	.
.	.	.	12ggg#J	.
.	.	.	12fff#L	.
.	.	.	12ggg#	.
.	.	.	12aaa#XJ	.
.	.	.	12bbbL	.
.	.	.	12aaa#	.
.	.	.	12ggg#J	.
=44	=44	=44	=44	=44
1F#_	1d#]	1b] 1ff#]	12fff#L	.
.	.	.	12eee	p
.	.	.	12ddd#J	.
.	.	.	12ccc#L	.
.	.	.	12bb	.
.	.	.	12aa#XJ	.
.	.	.	12gg#L	.
.	.	.	12ff#	.
.	.	.	12eeJ	.
.	.	.	12dd#L	.
.	.	.	12cc#	.
.	.	.	12bJ)	.
=45	=45	=45	=45	=45
1F#_	[1c#X	[1e	(<12a#XL	.
.	.	.	12g#	.
.	.	.	12f#J	.
.	.	.	12e#XL	.
.	.	.	12f#	.
.	.	.	12gnJ	.
.	.	.	12g#XL	.
.	.	.	12an	.
.	.	.	12a#XJ	.
.	.	.	12bL	.
.	.	.	12b#X	.
.	.	.	12cc#J)	.
=46	=46	=46	=46	=46
!!linebreak:original
1F#_	1c#_	1e_	(12ddnL	.
.	.	.	12dd#X	.
.	.	.	12eenJ	.
.	.	.	12ee#XL	.
.	.	.	12ff#	.
.	.	.	12ggnJ	.
.	.	.	12gg#XL	.
.	.	.	12ff#	.
.	.	.	12eenJ	.
.	.	.	12dd#L	.
.	.	.	12cc#	.
.	.	.	12eeJ)	.
=47	=47	=47	=47	=47
4F#]	4c#]	4e]	(>12bnL	.
.	.	.	12a#X	.
.	.	.	12cc#J	.
4r	4r	4r	12gnL	.
.	.	.	12f#	.
.	.	.	12a#XJ	.
2r	2r	2r	12cc#L	.
.	.	.	12ee	.
.	.	.	12gg#XJ	.
.	.	.	12ee#XL	.
.	.	.	12ff#	.
.	.	.	12a#XJ)	.
=48	=48	=48	=48	=48
12BB'L	12D#X'L	1r	([4b	.
12BB'	12D#'	.	.	.
12BB'J	12D#'J	.	.	.
8BB'	8D#'	.	12bL]	.
.	.	.	12ff#	.
8r	8r	.	.	.
.	.	.	12dd#J)	.
12BB'L	12D#'L	.	([4b	.
12BB'	12D#'	.	.	.
12BB'J	12D#'J	.	.	.
8BB'	8D#'	.	12bL]	.
.	.	.	12dd#	.
8r	8r	.	.	.
.	.	.	12bJ)	.
=49	=49	=49	=49	=49
12BB'L	12E'L	([4A#X	(2.en	.
12BB'	12E'	.	.	.
12BB'J	12E'J	.	.	.
8BB'	8E'	12A#L]	.	.
.	.	12e	.	.
8r	8r	.	.	.
.	.	12c#J)	.	.
12BB'L	12E'L	([4A#X	.	.
12BB'	12E'	.	.	.
12BB'J	12E'J	.	.	.
8BB'	8E'	12A#L]	4a#X)	.
.	.	12c#	.	.
8r	8r	.	.	.
.	.	12f#J)	.	.
=50	=50	=50	=50	=50
12BB'L	12D#'L	([4f#	([4b	.
12BB'	12D#'	.	.	.
12BB'J	12D#'J	.	.	.
8BB'	8D#'	12f#L]	12bL]	.
.	.	12d#	12bb	.
8r	8r	.	.	.
.	.	12f#J)	12ff#J)	.
12BB'L	12D#'L	([4B	([4dd#	.
12BB'	12D#'	.	.	.
12BB'J	12D#'J	.	.	.
8BB'	8D#'	12BL]	12dd#L]	.
.	.	12d#	12ff#	.
8r	8r	.	.	.
.	.	12f#J)	12bJ)	.
=51	=51	=51	=51	=51
!!linebreak:original
12BB'L	12E'L	([4f#	(2a#X	.
12BB'	12E'	.	.	.
12BB'J	12E'J	.	.	.
8BB'	8E'	12f#L]	.	.
.	.	12ee	.	.
8r	8r	.	.	.
.	.	12cc#J)	.	.
12BB'L	12E'L	(>12a#XL	4cc#	.
12BB'	12E'	12ee	.	.
12BB'J	12E'J	12cc#J	.	.
8BB'	8E'	12a#L	4ff#)	.
.	.	12cc#	.	.
8r	8r	.	.	.
.	.	12a#J)	.	.
=52	=52	=52	=52	=52
*	*	*	*^	*
(2d#	(2f#	(2b	[2ff#T	64...ff#LLLLyy	.
.	.	.	.	64...gg#yy	.
.	.	.	.	64...ff#yy	.
.	.	.	.	64...gg#yy	.
.	.	.	.	64...ff#yy	.
.	.	.	.	64...gg#yy	.
.	.	.	.	64...ff#yy	.
.	.	.	.	64...gg#yy	.
.	.	.	.	64...ff#yy	.
.	.	.	.	64...gg#yy	.
.	.	.	.	64...ff#yy	.
.	.	.	.	64...gg#yy	.
.	.	.	.	64...ff#yy	.
.	.	.	.	64...gg#yy	.
.	.	.	.	64...ff#yy	.
.	.	.	.	64...gg#yy	.
.	.	.	.	64...ff#JJJJyy	.
.	.	.	.	512ryy	.
2c#	2e	2a#X	4..ff#]	2ryy	.
.	.	.	16qqee#X/LL	.	.
.	.	.	16qqff#/JJ	.	.
.	.	.	16gg#	.	.
*	*	*	*v	*v	*
=53	=53	=53	=53	=53
2e	2gn	2cc#	(2aa#X	.
2d#)	2f#)	2b)	2bb	.
=54	=54	=54	=54	=54
(2f##X	(2a#X	(2ee	2ccc#	.
4g#	4b	4dd#	4bb	.
4e)	4g#X)	8.ff#L	8.ddd#L	.
.	.	16eeJk)	16ccc#Jk)	.
=55	=55	=55	=55	=55
(2f#X	(2.f#	(2dd#	(2bb	.
4F#)	.	4cc#)	4aa#X)	.
4r	4e)	4r	4r	.
=56	=56	=56	=56	=56
(2BB	(2dn	(2ff#	1r	.
!LO:TX:b:i:t=cresc.	!	!	!	!
[2GGn)	2B)	[2e) 2ee	.	.
=57	=57	=57	=57	=57
!	!LO:TX:b:i:t=cresc.	!LO:TX:b:i:t=cresc.	!	!
2GG]	2A)	2e] 2cc#X	8aanL	.
.	.	.	(16bbL	.
.	.	.	16ccc#JJ	.
.	.	.	16dddnLL	.
.	.	.	16eee	.
.	.	.	16fff#	.
.	.	.	16gggnJJ	.
2FF#	2F# 2A	2dn 2ddn	[4aaa)	.
.	.	.	(16aaaLL]	.
.	.	.	16gggn	.
.	.	.	16fff#	.
.	.	.	16eeeJJ)	.
=58	=58	=58	=58	=58
2AA	2F#X	2dn	(16dddnLL	.
.	.	.	16ccc#	.
.	.	.	16bb	.
.	.	.	16aaJJ	.
.	.	.	16ggnLL	.
.	.	.	16ff#	.
.	.	.	16ee	.
.	.	.	16ddnJJ	.
!	!	!LO:TX:a:t=sul G.	!	!
2AA	4..Gn	4..e	16cc#LL	.
.	.	.	16b	.
.	.	.	16a	.
.	.	.	16gnJJ	.
.	.	.	16f#LL	.
.	.	.	16e	.
.	.	.	16dn	.
!	!	!	!	!
.	16A	16f#	16c#JJ)	.
=59	=59	=59	=59	=59
!!linebreak:original
12DDn'L	4F#	4dn	([4dn	.
12DD'	.	.	.	.
12DD'J	.	.	.	.
8DD'	4r	4r	12dL]	.
.	.	.	12a	.
8r	.	.	.	.
.	.	.	12f#J)	.
12DDn'L	2r	2r	([4dn	.
12DD'	.	.	.	.
12DD'J	.	.	.	.
8DD'	.	.	12dL]	.
.	.	.	12f#	.
8r	.	.	.	.
.	.	.	12dnJ)	.
=60	=60	=60	=60	=60
12DDn'L	1r	(<[4gn	(2B-X	.
12DD'	.	.	.	.
12DD'J	.	.	.	.
8DD'	.	12gL]	.	.
.	.	12ggn	.	.
8r	.	.	.	.
.	.	12eeJ)	.	.
12DDn'L	.	([4cc#	4An	.
12DD'	.	.	.	.
12DD'J	.	.	.	.
8DD'	.	12cc#L]	4c#)	.
.	.	12ee	.	.
8r	.	.	.	.
.	.	12gnJ)	.	.
=61	=61	=61	=61	=61
12DDn'L	([4Dn	([4fn	2dn	.
12DD'	.	.	.	.
12DD'J	.	.	.	.
8DD'	12DL]	12fL]	.	.
.	12A	12a	.	.
8r	.	.	.	.
.	12FnJ)	12fJ)	.	.
12DD'L	([4D	([4dn	2a 2ffn	.
12DD'	.	.	.	.
12DD'J	.	.	.	.
8DD'	12DL]	12dL]	.	.
.	12F	12f	.	.
8r	.	.	.	.
.	12DJ)	12dnJ)	.	.
=62	=62	=62	=62	=62
12CCn'L	[1E-X	[4e-X	[4a [4ffn	.
12CC'	.	.	.	.
12CC'J	.	.	.	.
8CC'	.	(12e-L]	(12aL] 12ff]	.
.	.	12a	12eee-X	.
8r	.	.	.	.
.	.	12ccnJ)	12cccnJ)	.
12FFn'L	.	(12ee-XL	[4aa	.
12FF'	.	12a	.	.
12FF'J	.	12ccnJ	.	.
8FF'	.	12fnL	(12aaL]	.
.	.	12ffn	12ccc	.
8r	.	.	.	.
.	.	12fJ)	12fffnJ)	.
=63	=63	=63	=63	=63
(2BB-X	(12E-L]	4b-X	4bb-X	.
.	12Dn)	.	.	.
.	12DJ	.	.	.
.	(12DL	4r	12r	.
.	12En)	.	12ddnL	.
.	12E'J	.	12ddJ	.
2AA)	(12EL	12r	(12ddL	.
.	12Fn)	12cnL	12ccn)	.
.	12F'J	12cJ	12cc'J	.
.	12FL	(12cL	4r	.
.	12F	12dn)	.	.
.	12FJ	12d'J	.	.
=64	=64	=64	=64	=64
!!linebreak:original
(2Cn	(12FnL	(12dnL	4r	.
.	12E-X)	12e-X)	.	.
.	12E-'J	12e-J	.	.
.	(12E-L	4r	12r	.
.	12F#X)	.	12ee-XL	.
.	12F#'J	.	12ee-J	.
2BBn)	(12F#L	12r	(12ee-L	.
.	12Gn)	12dL	12ddn)	.
.	12G'J	12dJ	12dd'J	.
.	12GL	(12dL	4r	.
.	12G	12en)	.	.
.	12GJ	12e'J	.	.
=65	=65	=65	=65	=65
(<2Dn	(12GnL	(12eL	4r	.
.	12Fn)	12fn)	.	.
.	12F'J	12f'J	.	.
.	(12FL	4r	12r	.
.	12G#X)	.	12ffnL	.
.	12G#'J	.	12ffJ	.
2C#X)	(12G#L	12r	(12ffL	.
.	12A)	12eL	12een)	.
.	12A'J	12eJ	12ee'J	.
.	12AL	(12eL	4r	.
.	12A	12f#X)	.	.
.	12AJ	12f#'J	.	.
=66	=66	=66	=66	=66
(2E	(12AL	(12f#L	12r	.
!	!LO:TX:b:i:t=cresc.	!LO:TX:b:i:t=cresc.	!LO:TX:b:i:t=cresc.	!
.	12A#X)	12gn)	12ggnL	.
.	12A#'J	12g'J	12ggJ	.
.	12A#L	12gL	12ggL	.
.	12A#	12g	12gg	.
.	12A#J	12gJ	12ggJ	.
!LO:TX:b:i:t=cresc.	!	!	!	!
2D#X)	(12A#L	(12gL	(12ggL	.
.	12B)	12f#X)	12ff#X)	.
.	12B'J	12f#'J	12ff#'J	.
.	12BL	(12f#L	(12ff#L	.
.	12B	12g#X)	12gg#X)	.
.	12B'J	12g#'J	12gg#'J	.
=67	=67	=67	=67	=67
(2F#	(12BL	(12g#XL	(12gg#XL	.
.	12cn)	12a)	12aa)	.
.	12c'J	12a'J	12aa'J	.
.	12cL	12aL	12aaL	.
.	12c	12a	12aa	.
.	12cJ	12aJ	12aaJ	.
2E#X)	(12cL	(12aL	(12aaL	.
.	12c#X)	12g#)	12gg#)	.
.	12c#'J	12g#'J	12gg#'J	.
.	(12c#L	(12g#L	(12gg#L	.
.	12dn)	12b)	12bb)	.
.	12d'J	12b'J	12bb'J	.
=68	=68	=68	=68	=68
!LO:TX:b:i:t=piu cresc.	!LO:TX:b:i:t=piu cresc.	!LO:TX:b:i:t=piu cresc.	!LO:TX:b:i:t=piu cresc.	!
12G#L	(12dnL	(12bL	(12bbL	.
12G#	12e#X)	12ddn)	12dddn)	.
12G#J	12dJ 12b	12dd'J	12ddd'J	.
12G#L	12dL 12b	(12ddL	(12dddL	.
12G#	12d 12b	12ee#X)	12eee#X)	.
12G#J	12dJ 12b	12ee#'J	12eee#'J	.
12G#L	12dL 12b	(12ee#L	(12eee#L	.
12G#	12d 12b	12gg#)	12ggg#)	.
12G#J	12dJ 12b	12gg#'J	12ggg#'J	.
12G#L	12dL 12b	(12gg#L	(12ggg#L	.
12G#	12d 12b	12bb)	12bbb)	.
12G#J	12dJ 12b	12ee#'J	12eee#X'J	.
=69	=69	=69	=69	=69
!!linebreak:original
12AL	12c#L	12ff#L	[4fff#	.
12A	12c#	12f#	.	.
12AJ	12c#J	12f#J	.	.
12AL	12c#L	12f#L	12fff#L]	.
12A	12c#	12f#	12ccc#'	.
12AJ	12c#J	12f#J	12aa'J	.
12AL	12c#L	12f#L	12ff#'L	.
12A	12c#	12f#	12cc#'	.
12AJ	12c#J	12f#J	12a'J	.
12AL	12c#L	12f#L	12f#'L	.
12A	12c#	12f#	12c#'	.
12AJ	12c#J	12f#J	12A'J	.
=70	=70	=70	=70	=70
12BL	12dnL	12gnL	[4Gn	.
12BB	12B	12dn	.	.
12BBJ	12BJ	12dJ	.	.
8BB	8B	8d	(12GL]	.
.	.	.	12B	.
8r	8r	8r	.	.
.	.	.	12dnJ)	.
12C#L	[4E#X	12r	4r	.
12C#	.	12BL	.	.
12C#J	.	12BJ	.	.
8C#	12E#L]	8B	[4ccc#	.
.	12G#	.	.	.
8r	.	8r	.	.
.	12c#J	.	.	.
=71	=71	=71	=71	=71
12AAL	12C#L	12AL 12f#	4ccc#]	.
12AA	12C#	12A 12f#	.	.
12AAJ	12C#J	12AJ 12f#	.	.
12AAL	12C#L	12AL 12f#	12fff#'L	.
12AA	12C#	12A 12f#	12ccc#'	.
12AAJ	12C#J	12AJ 12f#	12aa'J	.
12AAL	12C#L	12AL 12f#	12ff#'L	.
12AA	12C#	12A 12f#	12cc#'	.
12AAJ	12C#J	12AJ 12f#	12a'J	.
12AAL	12C#L	12AL 12f#	12f#'L	.
12AA	12C#	12A 12f#	12c#'	.
12AAJ	12C#J	12AJ 12f#	12A'J	.
=72	=72	=72	=72	=72
12BBL	12DnL	12gnL	[4Gn	.
12BB	12B	12dn	.	.
12BBJ	12BJ	12dJ	.	.
8BB	8B	8d	12GL]	.
.	.	.	12B	.
8r	8r	8r	.	.
.	.	.	12dnJ	.
12C#L	[4E#X	4r	4r	.
12C#	.	.	.	.
12C#J	.	.	.	.
8C#	12E#L]	4r	12e#XL	.
.	12G#	.	12g#X	.
8r	.	.	.	.
.	12c#J	.	12cc#J	.
=73	=73	=73	=73	=73
12r	[4F#	1r	[4f#	.
12AAL	.	.	.	.
12AAJ	.	.	.	.
8AA	12F#L]	.	(12f#L]	.
.	12A	.	12a	.
8r	.	.	.	.
.	12cnJ	.	12ccnJ)	.
12r	[4D#X	.	[4d#	.
12BBL	.	.	.	.
12BBJ	.	.	.	.
8BB	12D#L]	.	(12d#L]	.
.	12F#	.	12f#	.
8r	.	.	.	.
.	12BJ	.	12bJ)	.
=74	=74	=74	=74	=74
!!linebreak:original
[2.BB	12r	12r	[4ccn	.
.	(12AL	(12d#XL	.	.
.	12GnJ	12eJ	.	.
.	[4F#)	[4f#)	12ccL]	.
.	.	.	12qddn/	.
.	.	.	(12cc	.
.	.	.	12bJ)	.
.	12F#L]	12f#L]	[4cc	.
.	(12F#	(12f#	.	.
.	12EnJ	12gnJ	.	.
12BBL]	[4D#)	[4a)	12ccL]	.
.	.	.	12qdd/	.
12BB	.	.	(12cc	.
12BBJ	.	.	12bJ)	.
=75	=75	=75	=75	=75
[2.BB	12D#L]	12aL]	[4ccn	.
.	(12A	(12d#	.	.
.	12GnJ	12eJ	.	.
.	[4F#)	[4f#)	12ccL]	.
.	.	.	12qddn/	.
.	.	.	(12cc	.
.	.	.	12bJ)	.
.	12F#L]	12f#L]	[4cc	.
.	(12F#	(12f#	.	.
.	12EJ	12gnJ	.	.
12BBL]	12D#L)	12aL)	12ccL]	.
.	.	.	12qdd/	.
12BB	12D#	12a	(12cc	.
12BBJ	12D#J	12aJ	12bJ)	.
=76	=76	=76	=76	=76
1Cn	1E	1e 1a	1a 1ee	.
=77	=77	=77	=77	=77
[2.BB	8F#	8b	12dd#XL	.
.	.	.	12qqdn/	.
.	.	.	12cn'	.
.	8r	8r	.	.
.	.	.	12B'J	.
.	4r	12r	[2c	.
.	.	12qqB/	.	.
.	.	12A'L	.	.
.	.	12G#X'J	.	.
.	12r	[4A	.	.
.	12F#'L	.	.	.
.	12E#X'J	.	.	.
12BBL]	(12F#L	12AL]	(12cL]	.
12BB	12D#	(12A	12B)	.
12BBJ	12EnJ)	12GnJ)	12BJ	.
=78	=78	=78	=78	=78
1CCn 1Cn	1E	1A	1e	.
=79	=79	=79	=79	=79
4BB	(<4F#'	(<4B'	(<4d#'	.
8.BL	4r	4r	4r	.
16BBJk	.	.	.	.
4BB	4f#')	4a')	4d#') 4ccn	.
8.BL	4r	4r	4r	.
16BBJk	.	.	.	.
=80	=80	=80	=80	=80
!!linebreak:original
4BB	(<4B'	(<4gn'	(<4e' 4b	.
8.BL	4r	4r	4r	.
16BBJk	.	.	.	.
4BB	4f#')	4d#')	4cn') 4a	.
8.BL	4r	4r	4r	.
16BBJk	.	.	.	.
=81	=81	=81	=81	=81
!LO:TX:b:i:t=dim.	!LO:TX:b:i:t=dim.	!LO:TX:b:i:t=dim.	!LO:TX:b:i:t=dim.	!
4BB	(<4B'	(<4e'	(<4B' 4gn	.
8.BL	4r	4r	4r	.
16BBJk	.	.	.	.
4BB	4cn')	4d#')	4A') 4f#	.
8.BL	4r	4r	4r	.
16BBJk	.	.	.	.
=82	=82	=82	=82	=82
4BB	(<4B'	(<4B'	(<4Gn' 4e	.
8.BL	4r	4r	4r	.
16BBJk	.	.	.	.
4BB	4A#X')	4c#X')	4Gn') 4e	.
8.BL	4r	4r	4r	.
16BBJk	.	.	.	.
=83	=83	=83	=83	=83
8.BB'L	4F#	4B	4d#X	.
16AA#X'k	.	.	.	.
8.BB'	4r	4r	4r	.
16AA#'Jk	.	.	.	.
8.BB'L	2r	[2ccn	2r	.
16AA#'k	.	.	.	.
8.BB'	.	.	.	.
16AA#'Jk	.	.	.	.
=84	=84	=84	=84	=84
!LO:TX:b:i:t=cresc.	!LO:TX:b:i:t=cresc.	!LO:TX:b:i:t=cresc.	!	!
8.BB'L	2e	2cc]	2r	.
16AAn'k	.	.	.	.
8.BB'	.	.	.	.
16AA'Jk	.	.	.	.
8.BB'L	2d#	[2b	2B 2f#	.
16AA'k	.	.	.	.
8.BB'	.	.	.	.
16AA'Jk	.	.	.	.
=85	=85	=85	=85	=85
8.GG#'L	4g#X	4b]	(2e	.
16BB'k	.	.	.	.
8.AA'	8r	(2b	.	.
.	(8G#	.	.	.
16GG#'Jk	.	.	.	.
8.FF#'L	2F#)	.	2d#	.
16EE'k	.	.	.	.
8.DD#'	.	4a)	.	.
16CC#'Jk	.	.	.	.
=86	=86	=86	=86	=86
8.BBB#X'L	2G#	(4g#	2f#	.
16GG#'k	.	.	.	.
8.AA#X'	.	2dd#	.	.
16BB#X'Jk	.	.	.	.
8.C#'L	2C#	.	2e)	.
16BBn'k	.	.	.	.
8.AAn'	.	[4cc#)	.	.
16GG#'Jk	.	.	.	.
=87	=87	=87	=87	=87
!!linebreak:original
8.FF#'L	(4A	(4cc#]	(2a	.
16BB'k	.	.	.	.
8.C#'	4F#	4ff#	.	.
16D#'Jk	.	.	.	.
8.E'L	4G#	4ee	4g#	.
16D#'k	.	.	.	.
8.C#'	4c#)	8.gg#L	8.bL	.
16AA'Jk	.	16ff#Jk)	16aJk)	.
=88	=88	=88	=88	=88
8.BB'L	[2B	(2ee	(2g#	.
16E'k	.	.	.	.
8.G#'	.	.	.	.
16A#X'Jk	.	.	.	.
8.B'L	8B]	4dd#X	4f#)	.
.	8r	.	.	.
16An'k	.	.	.	.
8.G#'	4r	4ddn)	4r	.
16F#'Jk	.	.	.	.
=89	=89	=89	=89	=89
8.E#X'L	4r	(2.cc#	(<2b	.
16D#'k	.	.	.	.
8.C#'	(4G#	.	.	.
16E#X'Jk	.	.	.	.
8.F#'L	4F#	.	2a	.
16En'k	.	.	.	.
8.D#'	4A)	8.b#XL	.	.
16C#'Jk	.	16cc#Jk)	.	.
=90	=90	=90	=90	=90
!LO:TX:b:i:t=cresc.	!LO:TX:b:i:t=cresc.	!LO:TX:b:i:t=cresc.	!LO:TX:b:i:t=cresc.	!
8.BB#X'L	2G#	(2dd#	2f#	.
16AA#X'k	.	.	.	.
8.GG#'	.	.	.	.
16FF#'Jk	.	.	.	.
8.EE'L	2G#	4ee	2g#)	.
16DD#'k	.	.	.	.
8.CC#'	.	4ff#)	.	.
16BBB#X'Jk	.	.	.	.
=91	=91	=91	=91	=91
8.CC#X'L	(<4c#	2ee	2e	.
16EE'k	.	.	.	.
8.AA#X'	4A#X)	.	.	.
16C#'Jk	.	.	.	.
8.BBn'L	[4An	(4aa	4..f#	.
16D#'k	.	.	.	.
8.F#'	8.AL]	8.ff#L	.	.
16B'Jk	16BJk	16gg#Jk)	16g#	.
=92	=92	=92	=92	=92
!!linebreak:original
8EE'L	4G#	(2ee	4e	.
16r	.	.	.	.
16G#'k	.	.	.	.
8E'	4r	.	4r	.
16r	.	.	.	.
16G#'Jk	.	.	.	.
!	!	!LO:TX:b:i:t=espress.	!	!
8BB'L	2r	2gg#	2r	.
16r	.	.	.	.
16G#'k	.	.	.	.
8E'	.	.	.	.
16r	.	.	.	.
16G#'Jk	.	.	.	.
=93	=93	=93	=93	=93
8BB'L	1r	2.bb)	(2b	.
!LO:TX:a:i:t=sempre staccato	!	!	!	!
16r	.	.	.	.
16F#'k	.	.	.	.
8D#'	.	.	.	.
16r	.	.	.	.
16F#'Jk	.	.	.	.
!	!	!	!LO:TX:b:i:t=espress.	!
8BB'L	.	.	2dd#	.
16r	.	.	.	.
16An'k	.	.	.	.
8F#'	.	8.ccc#L)	.	.
16r	.	.	.	.
16A'Jk	.	16aaJk	.	.
=94	=94	=94	=94	=94
*	*	*^	*	*
8BB'L	(2E	(4gg#t	4096%113gg#yy	2.ee	.
.	.	.	4096%113aayy	.	.
.	.	.	4096%113gg#yy	.	.
.	.	.	4096%113aayy	.	.
.	.	.	4096%113gg#yy	.	.
16r	.	.	.	.	.
.	.	.	4096%113aayy	.	.
.	.	.	4096%113gg#yy	.	.
16G#'k	.	.	.	.	.
.	.	.	4096%113aayy	.	.
.	.	.	4096%113gg#yy	.	.
.	.	.	1024..ryy	.	.
8E'	.	8.bbL	2.ryy	.	.
16r	.	.	.	.	.
16G#'Jk	.	16gg#Jk)	.	.	.
!	!LO:TX:b:i:t=espress.	!	!	!	!
8BB'L	2G#X	4ee	.	.	.
16r	.	.	.	.	.
16G#'k	.	.	.	.	.
8E'	.	4r	.	8.dd#L)	.
16r	.	.	.	.	.
16G#'Jk	.	.	.	16cc#Jk	.
=95	=95	=95	=95	=95	=95
8BB'L	2B	1ryy	1r	(4b	.
16r	.	.	.	.	.
16A'k	.	.	.	.	.
8F#'	.	.	.	8.ff#L	.
16r	.	.	.	.	.
16A'Jk	.	.	.	16dd#Jk	.
8BB'L	2d#)	.	.	4b	.
16r	.	.	.	.	.
16A'k	.	.	.	.	.
8F#'	.	.	.	8.cc#L	.
16r	.	.	.	.	.
16A'Jk	.	.	.	16aJk)	.
*	*	*v	*v	*	*
=96	=96	=96	=96	=96
*	*	*	*^	*
8E'L	(2.e	(2e	(4g#t	4096%113g#yy	.
.	.	.	.	4096%113ayy	.
.	.	.	.	4096%113g#yy	.
.	.	.	.	4096%113ayy	.
.	.	.	.	4096%113g#yy	.
16r	.	.	.	.	.
.	.	.	.	4096%113ayy	.
.	.	.	.	4096%113g#yy	.
16B'k	.	.	.	.	.
.	.	.	.	4096%113ayy	.
.	.	.	.	4096%113g#yy	.
.	.	.	.	1024..ryy	.
8G#'	.	.	8.bL	2.ryy	.
16r	.	.	.	.	.
16B'Jk	.	.	16g#Jk	.	.
8E'L	.	[2g#)	4e)	.	.
16r	.	.	.	.	.
16B'k	.	.	.	.	.
8G#'	8.dnL)	.	4r	.	.
16r	.	.	.	.	.
16B'Jk	16c#Jk	.	.	.	.
*	*	*	*v	*v	*
=97	=97	=97	=97	=97
8E'L	(8.BL	1g#_ [1b	(2ee	.
16r	.	.	.	.
16dn'k	16Ak	.	.	.
8B'	8.G#	.	.	.
16r	.	.	.	.
16d'Jk	16F#Jk	.	.	.
8E'L	4E	.	4gg#	.
16r	.	.	.	.
16B'k	.	.	.	.
8G#'	4Dn)	.	8.bbL	.
16r	.	.	.	.
16B'Jk	.	.	16ccc#Jk	.
=98	=98	=98	=98	=98
!!linebreak:original
8E#XL	1C#	2.g#] 2.b]	8.bbL	.
16r	.	.	.	.
16c#k	.	.	16aak	.
8G#	.	.	8.gg#	.
16r	.	.	.	.
16c#Jk	.	.	16ff#Jk	.
8C#L	.	.	2ee#X)	.
16r	.	.	.	.
16G#k	.	.	.	.
8E#X	.	(8.cc#L	.	.
16r	.	.	.	.
16G#Jk	.	16bJk)	.	.
=99	=99	=99	=99	=99
!	!LO:TX:b:i:t=cresc.	!	!	!
!LO:TX:b:i:t=cresc.	!LO:TX:a:i:t=staccato	!LO:TX:b:i:t=cresc.	!LO:TX:b:i:t=cresc.	!
(2FF#	8C#'L	(8.aL	1ff#	.
.	16r	.	.	.
.	16A'k	16g#k	.	.
.	8F#'	8.f#	.	.
.	16r	.	.	.
.	16A'Jk	16eJk	.	.
2AA)	8F#'L	4d#	.	.
.	16r	.	.	.
.	16A'k	.	.	.
.	8F#'	4c#)	.	.
.	16r	.	.	.
.	16A'Jk	.	.	.
=100	=100	=100	=100	=100
4GG#	4D#	4B#X	4gg#	.
8.BB#XL	8.D#L	8.g#XL	8.gg#L	.
16BB#Jk	16D#Jk	16g#Jk	16ff#Jk	.
8.C#L	8.EL	8.g#L	8.eenL	.
16D#k	16A#Xk	16gnk	16dd#k	.
8.D#	8.A#	8.g	8.cc#	.
16D#Jk	16A#Jk	16gJk	16dd#Jk	.
=101	=101	=101	=101	=101
!LO:TX:b:i:t=cresc.	!LO:TX:b:i:t=cresc.	!LO:TX:b:i:t=cresc.	!LO:TX:b:i:t=cresc.	!
4GG#	4G#	4g#X	8.b#XL	.
.	.	.	16aak	.
8.BB#XL	8.D#L	8.g#L	8.gg#	.
16BB#Jk	16D#Jk	16g#Jk	16ff#Jk	.
8.C#L	8.EL	8.g#L	8.eeL	.
16F#k	16Ank	16ak	16dd#k	.
8.F#	8.A	8.a	8.cc#	.
16F#Jk	16AJk	16d#Jk 16a	16ccnJk	.
=102	=102	=102	=102	=102
4F#	4A	4d# 4a	4bn	.
8.D#L	8.f#L	8.bL	8.bbL	.
16D#Jk	16f#Jk	16bJk	16aaJk	.
8.EL	8.g#L	8.bL	8.gg#L	.
16F#k	16c#k	16a#Xk	16ff#k	.
8.F#	8.c#	8.a#	8.ee	.
16F#Jk	16c#Jk	16a#Jk	16ff#Jk	.
=103	=103	=103	=103	=103
1Bn	4B	4b	(8.dd#L	.
.	.	.	16cccnk)	<
.	8.d#L	8.f#L	8.bb	.
.	16d#Jk	16f#Jk	16aaJk	.
.	8.eL	8.gnL	8.ggnL	.
.	16f#k	16a#Xk	16ff#k	.
.	8.gn	8.a#	8.ee	.
.	16f#Jk	16a#Jk	16ff#Jk	.
=104	=104	=104	=104	=104
!LO:TX:b:i:t=cresc.	!	!LO:TX:b:i:t=cresc.	!LO:TX:b:i:t=cresc.	!
(8.BL	(4f#	(4b	(4dd#	.
*clefG2	*	*	*	*
16cccnJk)	.	.	.	.
!	!LO:TX:b:i:t=cresc.	!	!	!
8.bbL	[4b	4dd#	4ff#	.
16aaJk	.	.	.	.
8.gg#XL	4b]	4ee	4ggn	.
16ff#Xk	.	.	.	.
8.ee	4cc#)	4ggn)	4aa#X)	.
16ff#Jk	.	.	.	.
=105	=105	=105	=105	=105
!!linebreak:original
8.dd#L	4f#	4ff#	[1bb	.
16eek	.	.	.	.
8.ff#	8.d#L	8.ff#L	.	.
16gg#Jk	16eJk	16eeJk	.	.
8.aaL	8.f#L	8.dd#L	.	.
16dd#k	16Bk	16cc#k	.	.
8.ee	8.c#	8.b	.	.
16ff#Jk	16d#Jk	16aanJk	.	.
=106	=106	=106	=106	=106
4..gg#	4..e	4gg#X	8bbL]	.
.	.	.	(16ccc#L	p
.	.	.	16ddd#JJ	.
.	.	4r	16eeeLL	.
.	.	.	16fff#	.
.	.	.	16ggg#	.
16ff#	16B	.	16aaanJJ)	.
8..eeL	8..G#L	2r	[2bbb	.
32bkk	32G#kk	.	.	.
8..ee	8..G#	.	.	.
32ff#Jkk	32d#Jkk	.	.	.
=107	=107	=107	=107	=107
(4..gg#	(4..e	1r	16bbbLL]	.
.	.	.	(16aaa	.
.	.	.	16ggg#	.
.	.	.	16fff#JJ	.
.	.	.	16eeeLL	.
.	.	.	16ddd#	.
.	.	.	16ccc#	.
16aa	16f#	.	16bbJJ	.
2bb)	2g#)	.	16eeeLL	.
.	.	.	16ddd#	.
.	.	.	16ccc#	.
.	.	.	16bbJJ	.
.	.	.	16aaLL	.
.	.	.	16gg#	.
.	.	.	16ff#	.
.	.	.	16eeJJ)	.
=108	=108	=108	=108	=108
(4.ccc#	(4.a	1r	(16dd#LL	.
.	.	.	16cc#	.
.	.	.	16b#X	.
.	.	.	16cc#JJ	.
.	.	.	16ee#XLL	.
.	.	.	16ff#	.
8cc#)	8A)	.	16aa	.
.	.	.	[16ccc#JJ)	.
(4ee	4B	.	(16ccc#LL]	.
.	.	.	16een	.
.	.	.	16gg#	.
.	.	.	[16bbJJ)	.
4dd#)	4B	.	(16bbLL]	.
.	.	.	16ff#	.
.	.	.	16bb	.
.	.	.	16aaJJ)	.
*clefF4	*	*	*	*
=109	=109	=109	=109	=109
4..E	4..e	4..b	4..gg#	.
16F#X	16B	16a	16ff#	.
8..G#XL	8..BL	8..g#L	8..eeL	.
32Akk	32Bkk	32f#kk	32bkk	.
8..G#X	8..B	8..g#	8..ee	.
32F#XJkk	32BJkk	32dd#Jkk	32ff#Jkk	.
=110	=110	=110	=110	=110
(4..E	1B	(4..ee	(4..gg#	.
16D#	.	16ff#	16aa	.
8..C#L	.	2gg#)	2bb)	.
32BBkk	.	.	.	.
8..AA	.	.	.	.
32GG#Jkk)	.	.	.	.
=111	=111	=111	=111	=111
!!linebreak:original
(8.FF#L	(8.AL	4.aa	4.ccc#	.
16GG#k	16Bk	.	.	.
8AA	8c#	.	.	.
8AA#XJ)	8GnJ)	8e	8cc#	.
(4BB	(4G#X	(4e	(4ee	.
!LO:TX:b:i:t=cresc.	!LO:TX:b:i:t=cresc.	!LO:TX:b:i:t=cresc.	!LO:TX:b:i:t=cresc.	!
4B)	4g#)	4b)	4e#X) 4ddn	.
=112	=112	=112	=112	=112
(4B'	4g#	(4b'	(4e#X' 4ddn	.
4r	8.bL	4r	4r	.
.	16BJk	.	.	.
4f#'	4B	4a'	4cc#'	.
4r	8.bL	4r	4r	.
.	16BJk	.	.	.
=113	=113	=113	=113	=113
!LO:TX:b:i:t=mancando	!	!LO:TX:b:i:t=mancando	!LO:TX:b:i:t=mancando	!
4d#X'	4B	4a'	4ccn'	.
4r	8.bL	4r	4r	.
.	16BJk	.	.	.
4e')	4B	4g#')	4b')	.
4r	8.bL	4r	4r	.
.	16BJk	.	.	.
*clefG2	*	*	*	*
=114	=114	=114	=114	=114
!LO:TX:b:i:t=poco cresc.	!	!	!	!
(2dddn	4B	(2ee#X	(2gg#X	.
.	8.bL	.	.	.
.	16BJk	.	.	.
12ccc#L	4B	[4ff#	[4aa	.
12bb	.	.	.	.
12aaJ	.	.	.	.
12gg#L	8.bL	12ff#L]	12aaL]	.
12ff#	.	12gg#	12bb	.
12eeJ)	.	12aaJ)	12ccc#J)	.
.	16BJk	.	.	.
=115	=115	=115	=115	=115
!LO:TX:b:i:t=piu cresc.	!	!LO:TX:b:i:t=cresc.	!LO:TX:b:i:t=cresc.	!
(4dd#X	4B	(4aa	(4ccc#	.
!	!LO:TX:b:i:t=cresc.	!	!	!
4cccn	8.bL	4dd#	4ff#	.
.	16BJk	.	.	.
12bbL	4B	4een	4gg#	.
12aa	.	.	.	.
12gg#J	.	.	.	.
12ff#L	8.bL	4ff#)	4aa)	.
12ee	.	.	.	.
12dd#J)	.	.	.	.
.	16BJk	.	.	.
=116	=116	=116	=116	=116
(2ee	(2g#	4ee	(12gg#L	.
.	.	.	12aa	p
.	.	.	12bbJ	.
.	.	4r	12ccc#L	.
.	.	.	12ddd#	.
.	.	.	12eeeJ	.
2b)	2d#)	(4f#	12ddd#L	.
.	.	.	12ccc#	.
.	.	.	12bbJ	.
.	.	8.bL	12aaL	.
.	.	.	12gg#	.
.	.	.	12ff#J)	.
.	.	16aJk	.	.
*clefF4	*	*	*	*
=117	=117	=117	=117	=117
(2c#	(2e	4g#)	(12eeL	.
.	.	.	12ff#	.
.	.	.	12gg#J	.
.	.	4r	12aaL	.
.	.	.	12bb	.
.	.	.	12ccc#J	.
2G#)	2B)	(4B	12bbL	.
.	.	.	12aa	.
.	.	.	12gg#J	.
.	.	8.eL	12ff#L	.
.	.	.	12ee	.
.	.	.	12dd#J)	.
.	.	16d#Jk)	.	.
=118	=118	=118	=118	=118
!!linebreak:original
(2A	(<2c#	(4..c#	(12cc#L	.
.	.	.	12dd#	.
.	.	.	12eeJ	.
.	.	.	12ff#L	.
.	.	.	12gg#	.
.	.	.	12aaJ	.
.	.	16d#	.	.
2E)	2G#)	[4e	12gg#L	.
.	.	.	12ff#	.
.	.	.	12eeJ	.
.	.	12eL]	12dd#L	.
.	.	12f#	12cc#	.
.	.	12g#J)	12bJ)	.
=119	=119	=119	=119	=119
(2F#	(4d#X	(12aL	2.a	.
.	.	12g#	.	.
.	.	[12f#J)	.	.
.	12eL	4f#_	.	.
.	12d#	.	.	.
.	12c#J	.	.	.
12BL	2B)	4f#]	.	.
12A	.	.	.	.
12G#J	.	.	.	.
12F#L	.	[4a	[4ff#	.
12E	.	.	.	.
12D#J)	.	.	.	.
=120	=120	=120	=120	=120
!LO:TX:b:i:t=cresc.	!	!	!	!
(12C#L	2.f#	4a]	4ff#]	.
12BB	.	.	.	.
12AAJ	.	.	.	.
12GG#L	.	(2a	(2aa	.
12FF#	.	.	.	.
12EEJ	.	.	.	.
12DD#L	.	.	.	.
12CC#	.	.	.	.
12BBB#XJ	.	.	.	.
!	!LO:TX:b:i:t=cresc.	!LO:TX:b:i:t=cresc.	!LO:TX:b:i:t=cresc.	!
12CC#L	[4a	[4ff#)	[4fff#)	.
12DD#	.	.	.	.
12EEJ)	.	.	.	.
=121	=121	=121	=121	=121
(12FF#L	(4a]	(4ff#]	(4fff#]	.
12EE	.	.	.	.
12DD#J	.	.	.	.
12EEL	4g#	4b 4ee	4eee	.
12FF#	.	.	.	.
12GG#J	.	.	.	.
12AAL	4e	4a 4cc#	4ccc#	.
12BBn	.	.	.	.
12C#J	.	.	.	.
12D#L	4f#)	[4b)	4bb)	.
12E	.	.	.	.
12F#J)	.	.	.	.
=122	=122	=122	=122	=122
(12EL	(4g#	(<4b]	(4gg#	.
12F#	.	.	.	.
12G#J	.	.	.	.
12AL	4c#)	4a)	4ff#)	.
12B	.	.	.	.
12c#J)	.	.	.	.
[2B	(12BL	(<12g#L	[2ee	.
.	12d#	12f#	.	.
.	12eJ	12g#J	.	.
.	12f#L	12aL	.	.
.	12g#	12b	.	.
.	12aJ)	12cc#J)	.	.
=123	=123	=123	=123	=123
1B_	2g#	2b	12eeL]	.
.	.	.	(12ff#	.
.	.	.	12gg#J	>
.	.	.	12aaL	.
.	.	.	12bb	.
.	.	.	12ccc#J	.
.	[2e	[2g#	12bbL	.
.	.	.	12ccc#	.
.	.	.	12ddd#J	.
.	.	.	12eeeL	.
.	.	.	12fff#	.
.	.	.	12ggg#J)	]
=124	=124	=124	=124	=124
!!linebreak:original
1B_	1e_	1g#_	(12aaaL	.
.	.	.	12bbb	p
.	.	.	12cccc#J	.
.	.	.	12bbbL	.
.	.	.	12aaa	.
.	.	.	12ggg#J	.
.	.	.	12fff#L	.
.	.	.	12eee	.
.	.	.	12ddd#J	.
.	.	.	12ccc#L	.
.	.	.	12bb	.
.	.	.	12aaJ)	.
=125	=125	=125	=125	=125
1B_	2e]	2g#]	(12gg#L	.
.	.	.	12ff#	.
.	.	.	12eeJ	.
.	.	.	12dd#L	.
.	.	.	12cc#	.
.	.	.	12bJ	.
.	[2f# [2a	[2dd#	12aL	.
.	.	.	12g#	.
.	.	.	12f#J	.
.	.	.	12eL	.
.	.	.	12d#	.
.	.	.	12c#J)	.
=126	=126	=126	=126	=126
1B_	1f#_ 1a_	1dd#_	(12BL	.
.	.	.	12cn	.
.	.	.	12c#XJ	.
.	.	.	12dnL	.
.	.	.	12d#X	.
.	.	.	12eJ	.
.	.	.	12e#XL	.
.	.	.	12f#	.
.	.	.	12gnJ	.
.	.	.	12g#XL	.
.	.	.	12a	.
.	.	.	12a#XJ)	.
=127	=127	=127	=127	=127
1B_	1f#_ 1a_	1dd#_	(4b'	.
.	.	.	4b#X'	.
.	.	.	4dd#'	.
.	.	.	4cc#')	.
=128	=128	=128	=128	=128
!LO:TX:b:i:t=cresc.	!LO:TX:b:i:t=cresc.	!LO:TX:b:i:t=cresc.	!LO:TX:b:i:t=cresc.	!
4B]	4f#] 4a]	4dd#]	(<4bn'	.
(4BB'	(4F#'	(4A'	4an'	.
4BB'	4F#'	4A'	4f#'	.
4BB')	4F#')	4A')	4d#')	.
=129	=129	=129	=129	=129
12EE'L	1G#	1B	([4dn	.
12EE'	.	.	.	.
12EE'J	.	.	.	.
8EE'	.	.	12dL]	.
.	.	.	12b	.
8r	.	.	.	.
.	.	.	12g#J)	.
12EE'L	.	.	([4dn	.
12EE'	.	.	.	.
12EE'J	.	.	.	.
8EE'	.	.	12dL]	.
.	.	.	12e	.
8r	.	.	.	.
.	.	.	12dnJ)	.
=130	=130	=130	=130	=130
!!linebreak:original
12EE'L	(2E	[2A	([4cn	.
12EE'	.	.	.	.
12EE'J	.	.	.	.
8EE'	.	.	12cL]	.
.	.	.	12e	.
8r	.	.	.	.
.	.	.	12aJ)	.
12EE'L	2D#X)	2A]	([4d#X	.
12EE'	.	.	.	.
12EE'J	.	.	.	.
8EE'	.	.	12d#L]	.
.	.	.	12f#	.
8r	.	.	.	.
.	.	.	12bJ)	.
=131	=131	=131	=131	=131
12EE'L	[4Dn	2G#	(2b	.
12EE'	.	.	.	.
12EE'J	.	.	.	.
8EE'	12DL]	.	.	.
.	12B	.	.	.
8r	.	.	.	.
.	12G#XJ	.	.	.
12EE'L	[4Dn	2g#	[2ee)	.
12EE'	.	.	.	.
12EE'J	.	.	.	.
8EE'	12DL]	.	.	.
.	12E	.	.	.
8r	.	.	.	.
.	12DJ	.	.	.
=132	=132	=132	=132	=132
*	*	*	*^	*
12EE'L	([4Cn	(2ccn	(2ee]	1a	.
12EE'	.	.	.	.	.
12EE'J	.	.	.	.	.
8EE'	12CL]	.	.	.	.
.	12E	.	.	.	.
8r	.	.	.	.	.
.	12AJ)	.	.	.	.
12EE'L	([4D#X	2b)	2ff#)	.	.
12EE'	.	.	.	.	.
12EE'J	.	.	.	.	.
8EE'	12D#L]	.	.	.	.
.	12F#	.	.	.	.
8r	.	.	.	.	.
.	12BJ)	.	.	.	.
*	*	*	*v	*v	*
=133	=133	=133	=133	=133
12EE'L	([4E	4b	(4g# 4ee	.
12EE'	.	.	.	.
12EE'J	.	.	.	.
8EE'	12EL]	(<4b	2gg#	.
.	12D#X	.	.	.
8r	.	.	.	.
.	12EJ)	.	.	.
12EE'L	([4D#	2a)	.	.
12EE'	.	.	.	.
12EE'J	.	.	.	.
8EE'	12D#L]	.	4ff#)	.
.	12C#X	.	.	.
8r	.	.	.	.
.	12D#J)	.	.	.
=134	=134	=134	=134	=134
12EE'L	([4E	(<4g#	(4ee	.
12EE'	.	.	.	.
12EE'J	.	.	.	.
8EE'	12EL]	4b	2gg#	.
.	12D#	.	.	.
8r	.	.	.	.
.	12EJ)	.	.	.
12EE'L	([4D#	2a)	.	.
12EE'	.	.	.	.
12EE'J	.	.	.	.
8EE'	12D#L]	.	4ff#X)	.
.	12C#	.	.	.
8r	.	.	.	.
.	12D#J)	.	.	.
=135	=135	=135	=135	=135
!	!LO:TX:b:i:t=cresc.	!LO:TX:b:i:t=cresc.	!LO:TX:b:i:t=cresc.	!
8EE	(12EL	2g#	2ee	.
.	12F#	.	.	.
8r	.	.	.	.
.	12G#J	.	.	.
4r	12AL	.	.	.
.	12B	.	.	.
.	12c#J)	.	.	.
!LO:TX:b:i:t=cresc.	!	!	!	!
(12BL	2B	2ee	2gg#	.
12A	.	.	.	.
12G#J	.	.	.	.
12F#L	.	.	.	.
12E	.	.	.	.
12D#J)	.	.	.	.
=136	=136	=136	=136	=136
!!linebreak:original
(12C#L	(<4A	[2a [2aa	[2ccc#	.
12BB	.	.	.	.
12AAJ	.	.	.	.
12GG#L	4c#	.	.	.
12FF#	.	.	.	.
12EEJ)	.	.	.	.
8DD#	8F#)	8a] 8aa]	8ccc#]	.
8r	8r	8r	8r	.
8EE	8G#	8g#	8bb	.
!LO:TX:b:i:t=cresc.	!LO:TX:b:i:t=cresc.	!LO:TX:b:i:t=cresc.	!LO:TX:b:i:t=cresc.	!
8r	8r	8r	8r	.
=137	=137	=137	=137	=137
8FF#	8A	8d#	8aa	.
8r	8r	8r	8r	.
8GG#	8B	8e	8gg#	.
8r	8r	8r	8r	.
8AA	8c#	8f#	8ff#	.
8r	8r	8r	8r	.
8AA#X	8c#	8gn	8ee	.
8r	8r	8r	8r	.
=138	=138	=138	=138	=138
2BB	2B	2g#X	2e 2ee	.
[2Cn	[2A	[2f# [2a	2dd#	.
=139	=139	=139	=139	=139
2C]	2A]	2f#] 2a]	2ff#	.
[2C#X	[2c#	(2g#	2e 2ee	.
=140	=140	=140	=140	=140
2C#]	2c#]	2e) 2cc#	2aa	.
[2E#X	[2dn	[2b	4..gg#	.
.	.	.	16aa	.
=141	=141	=141	=141	=141
2E#]	2d]	2b]	(2gg#	.
[2F#	[2d#X	[2a	4ff#)	.
.	.	.	4r	.
=142	=142	=142	=142	=142
2F#]	2d#]	2a]	2bb	.
[2BB#X	[2A	[2f# [2dd#	(2a 2aa	.
=143	=143	=143	=143	=143
2BB#]	2A]	2f#] 2dd#]	2a) 2ff#	.
.	.	.	16qqb/	sf
2BBn	2G#	2e 2ee	[2gg#	.
=144	=144	=144	=144	=144
1BB	(2E	(2G#	16gg#LL]	.
.	.	.	(>16ff#	.
.	.	.	16ee	.
.	.	.	16dd#JJ	.
.	.	.	16cc#LL	.
.	.	.	16b	.
.	.	.	16a	.
.	.	.	16g#JJ	.
.	4..F#	4..A	16f#LL	.
.	.	.	16e	.
.	.	.	16d#	.
.	.	.	16c#JJ	.
.	.	.	16BLL	.
.	.	.	16cc#	.
.	.	.	16b	.
.	16G#)	16B)	16d#JJ)	.
=145	=145	=145	=145	=145
12EE'L	4E	4G#	([4e	.
12EE'	.	.	.	.
12EE'J	.	.	.	.
8EE'	12EL	12g#L	12eL]	.
.	12E	12g#	12b	.
8r	.	.	.	.
.	12EJ	12g#J	12g#J)	.
12EE'L	4r	4r	([4dn	.
12EE'	.	.	.	.
12EE'J	.	.	.	.
8EE'	12G#L	12bL	12dL]	.
.	12G#	12b	12e	.
8r	.	.	.	.
.	12G#J	12bJ	12dnJ)	.
=146	=146	=146	=146	=146
!!linebreak:original
12EE'L	4r	4r	(4cn	.
12EE'	.	.	.	.
12EE'J	.	.	.	.
8EE'	12AL	12cc#L	12c#XL	.
.	12A	12cc#	12e	.
8r	.	.	.	.
.	12AJ	12cc#J	12aJ)	.
12EE'L	4r	4r	([4d#	.
12EE'	.	.	.	.
12EE'J	.	.	.	.
8EE'	12AL	12bL	12d#L]	.
.	12A	12b	12f#	.
8r	.	.	.	.
.	12AJ	12bJ	12bJ)	.
=147	=147	=147	=147	=147
12EE'L	([4E	(<12bL	4g#	.
12EE'	.	12e	.	.
12EE'J	.	12g#J	.	.
8EE'	12EL]	[4b)	12gg#L	.
.	12B	.	12gg#	.
8r	.	.	.	.
.	12G#J)	.	12gg#J	.
12EE'L	([4Dn	12bL]	4r	.
12EE'	.	12g#	.	.
12EE'J	.	12bJ)	.	.
8EE'	12DL]	[4ee	12gg#L	.
.	12E	.	12gg#	.
8r	.	.	.	.
.	12DnJ)	.	12gg#J	.
=148	=148	=148	=148	=148
12EE'L	([4Cn	(12eeL]	4r	.
12EE'	.	12a	.	.
12EE'J	.	12ccnJ)	.	.
8EE'	12CL]	4ee	12aaL	.
.	12E	.	12aa	.
8r	.	.	.	.
.	12AJ)	.	12aaJ	.
12EE'L	([4D#X	(12ff#L	4r	.
12EE'	.	12a	.	.
12EE'J	.	12bJ	.	.
8EE'	12D#L]	12ff#L	12bbL	.
.	12F#	12b	12bb	.
8r	.	.	.	.
.	12BJ)	12aJ)	[12bbJ	.
=149	=149	=149	=149	=149
12EE'L	([4E	4g#	12bbL]	.
12EE'	.	.	(12ee	.
12EE'J	.	.	12gg#J	.
8EE'	12EL]	12r	[4bb)	.
.	12D#	(12g#L	.	.
8r	.	.	.	.
.	12EJ)	12bJ	.	.
12EE'L	([4D#	4a)	12bbL]	.
12EE'	.	.	(12ff#	.
12EE'J	.	.	12aaJ	.
8EE'	12D#L]	12r	[4bb)	.
.	12C#	(12aL	.	.
8r	.	.	.	.
.	12D#J)	12bJ	.	.
=150	=150	=150	=150	=150
!LO:TX:b:i:t=dim.	!LO:TX:b:i:t=dim.	!LO:TX:b:i:t=dim.	!LO:TX:b:i:t=dim.	!
12EE'L	[4E	4g#)	12bbL]	.
12EE'	.	.	(12ee	.
12EE'J	.	.	12gg#J	.
8EE'	12EL]	12r	[4bb)	.
.	12D#	(12g#L	.	.
8r	.	.	.	.
.	12EJ	12bJ	.	.
12EE'L	[4D#	4a)	12bbL]	.
12EE'	.	.	(12ff#	.
12EE'J	.	.	12aaJ	.
8EE'	12D#L]	12r	4bb)	.
.	12C#	(12aL	.	.
8r	.	.	.	.
.	12D#J	12bJ)	.	.
=151	=151	=151	=151	=151
1EE	(2E	1g#	(12bbL	.
.	.	.	12aa	.
.	.	.	12gg#J	.
.	.	.	12ff#L	.
.	.	.	12ee	.
.	.	.	12dd#J	.
.	2G#	.	12eeL	.
.	.	.	12dd#	.
.	.	.	12cc#J	.
.	.	.	12bL	.
.	.	.	12a#X	.
.	.	.	12cc#J)	.
=152	=152	=152	=152	=152
!!linebreak:original
[1E	1G#)	(12bL	1b	.
.	.	12a	.	.
.	.	12g#J	.	.
.	.	12f#L	.	.
.	.	12e	.	.
.	.	12d#J	.	.
.	.	12eL	.	.
.	.	12d#	.	.
.	.	12c#J	.	.
.	.	12BL	.	.
.	.	12A#X	.	.
.	.	12c#J)	.	.
=153	=153	=153	=153	=153
2E_	(12BL	[1B [1e	[1g#	.
.	12A	.	.	.
.	12G#J	.	.	.
.	12F#L	.	.	.
.	12E	.	.	.
.	12D#J)	.	.	.
(<12EL]	[2E	.	.	.
12D#	.	.	.	.
12C#J	.	.	.	.
12BBL	.	.	.	.
12AA#X	.	.	.	.
12C#J)	.	.	.	.
=154	=154	=154	=154	=154
(12BBL	1E_	1B_ 1e_	1g#_	.
12AAn	.	.	.	.
12GG#J	.	.	.	.
12FF#L	.	.	.	.
12EE	.	.	.	.
12DD#J	.	.	.	.
12EEL	.	.	.	.
12DD#	.	.	.	.
12FF#J	.	.	.	.
12EEL	.	.	.	.
12DD#	.	.	.	.
12FF#J)	.	.	.	.
=155	=155	=155	=155	=155
(12EEL	2E]	2B] 2e]	2g#]	.
12DD#	.	.	.	.
12FF#J	.	.	.	.
12EEL	.	.	.	.
12DD#	.	.	.	.
12FF#J	.	.	.	.
12EEL	8G#	8B	8e	.
12DD#	.	.	.	.
.	8r	8r	8r	.
12FF#J	.	.	.	.
12EEL	8G#	8B	8e	.
12DD#	.	.	.	.
.	8r	8r	8r	.
12FF#J)	.	.	.	.
=156	=156	=156	=156	=156
8EE	8G#	8B	8e	.
8r	8r	8r	8r	.
4r	4r	4r	4r	.
8EE	8E	8G#	8B	.
8r	8r	8r	8r	.
4r	4r	4r	4r	.
=157	=157	=157	=157	=157
1EE;	1E;	1G#;	1B;	.
==	==	==	==	==
*-	*-	*-	*-	*-
!!!system-decoration: [(s1,s2,s3[(s4)])]
!!!RDF**kern: > = above
!!!RDF**kern: < = below
